dist/svg/basket-line.svg

<svg xmlns="http://www.w3.org/2000/svg" viewBox="0 0 24 24"><path d="M9.27 4.296a.74.74 0 0 0-.341.224c-.028.033-.69 1.333-1.47 2.89L6.04 10.24l-1.53.001c-.842 0-1.601.017-1.687.037a.739.739 0 0 0-.348 1.246c.191.192.365.236.932.236h.467l.042.21c.024.115.268 1.416.543 2.89.276 1.474.539 2.806.585 2.96.132.442.306.73.656 1.084.473.479.934.719 1.566.816.185.029 1.785.038 4.914.03 5.214-.014 4.795.01 5.44-.322.239-.123.406-.252.661-.507.371-.372.539-.646.675-1.101.046-.154.309-1.486.585-2.96s.519-2.775.543-2.89l.042-.21h.467c.567 0 .741-.044.932-.236a.739.739 0 0 0-.348-1.246c-.086-.02-.845-.037-1.687-.037l-1.53-.001-1.416-2.833c-1.138-2.275-1.445-2.857-1.56-2.958a.735.735 0 0 0-1.224.563c0 .164.148.482 1.26 2.707l1.26 2.521H7.72l1.26-2.521c1.357-2.715 1.344-2.682 1.204-3.015-.141-.338-.574-.531-.914-.408m9.315 7.534c-.012.038-.247 1.277-.523 2.752-.276 1.476-.53 2.766-.565 2.868-.083.243-.316.504-.583.651l-.214.119-4.613.011c-3.073.007-4.665-.003-4.767-.031-.346-.093-.75-.474-.838-.791-.023-.082-.268-1.355-.544-2.829a247 247 0 0 0-.523-2.75c-.019-.066.313-.07 6.585-.07s6.604.004 6.585.07m-9.885.987a.76.76 0 0 0-.384.399c-.069.151-.074.289-.074 1.784 0 1.493.006 1.633.074 1.78.137.295.381.46.684.46s.547-.165.684-.46c.068-.147.074-.287.074-1.78s-.006-1.633-.074-1.78c-.086-.186-.257-.357-.417-.417a.9.9 0 0 0-.567.014m3 0a.76.76 0 0 0-.384.399c-.069.151-.074.289-.074 1.784 0 1.493.006 1.633.074 1.78.137.295.381.46.684.46s.547-.165.684-.46c.068-.147.074-.287.074-1.78s-.006-1.633-.074-1.78c-.086-.186-.257-.357-.417-.417a.9.9 0 0 0-.567.014m3 0a.76.76 0 0 0-.384.399c-.069.151-.074.289-.074 1.784 0 1.493.006 1.633.074 1.78.137.295.381.46.684.46s.547-.165.684-.46c.068-.147.074-.287.074-1.78s-.006-1.633-.074-1.78c-.086-.186-.257-.357-.417-.417a.9.9 0 0 0-.567.014" fill-rule="evenodd"/></svg>

<svg fill="none" xmlns="http://www.w3.org/2000/svg" viewBox="0 0 24 24"><path d="M9.270 4.296 C 9.114 4.353,9.017 4.416,8.929 4.520 C 8.901 4.553,8.239 5.853,7.459 7.410 L 6.040 10.240 4.510 10.241 C 3.668 10.241,2.909 10.258,2.823 10.278 C 2.258 10.409,2.062 11.111,2.475 11.524 C 2.666 11.716,2.840 11.760,3.407 11.760 L 3.874 11.760 3.916 11.970 C 3.940 12.085,4.184 13.386,4.459 14.860 C 4.735 16.334,4.998 17.666,5.044 17.820 C 5.176 18.262,5.350 18.550,5.700 18.904 C 6.173 19.383,6.634 19.623,7.266 19.720 C 7.451 19.749,9.051 19.758,12.180 19.750 C 17.394 19.736,16.975 19.760,17.620 19.428 C 17.859 19.305,18.026 19.176,18.281 18.921 C 18.652 18.549,18.820 18.275,18.956 17.820 C 19.002 17.666,19.265 16.334,19.541 14.860 C 19.816 13.386,20.060 12.085,20.084 11.970 L 20.126 11.760 20.593 11.760 C 21.160 11.760,21.334 11.716,21.525 11.524 C 21.938 11.111,21.742 10.409,21.177 10.278 C 21.091 10.258,20.332 10.241,19.490 10.241 L 17.960 10.240 16.544 7.407 C 15.406 5.132,15.099 4.550,14.984 4.449 C 14.501 4.025,13.760 4.365,13.760 5.012 C 13.760 5.176,13.908 5.494,15.020 7.719 L 16.280 10.240 12.000 10.240 L 7.720 10.240 8.980 7.719 C 10.337 5.004,10.324 5.037,10.184 4.704 C 10.043 4.366,9.610 4.173,9.270 4.296 M18.585 11.830 C 18.573 11.868,18.338 13.107,18.062 14.582 C 17.786 16.058,17.532 17.348,17.497 17.450 C 17.414 17.693,17.181 17.954,16.914 18.101 L 16.700 18.220 12.087 18.231 C 9.014 18.238,7.422 18.228,7.320 18.200 C 6.974 18.107,6.570 17.726,6.482 17.409 C 6.459 17.327,6.214 16.054,5.938 14.580 C 5.662 13.106,5.427 11.868,5.415 11.830 C 5.396 11.764,5.728 11.760,12.000 11.760 C 18.272 11.760,18.604 11.764,18.585 11.830 M8.700 12.817 C 8.530 12.893,8.403 13.026,8.316 13.216 C 8.247 13.367,8.242 13.505,8.242 15.000 C 8.242 16.493,8.248 16.633,8.316 16.780 C 8.453 17.075,8.697 17.240,9.000 17.240 C 9.303 17.240,9.547 17.075,9.684 16.780 C 9.752 16.633,9.758 16.493,9.758 15.000 C 9.758 13.507,9.752 13.367,9.684 13.220 C 9.598 13.034,9.427 12.863,9.267 12.803 C 9.114 12.745,8.846 12.752,8.700 12.817 M11.700 12.817 C 11.530 12.893,11.403 13.026,11.316 13.216 C 11.247 13.367,11.242 13.505,11.242 15.000 C 11.242 16.493,11.248 16.633,11.316 16.780 C 11.453 17.075,11.697 17.240,12.000 17.240 C 12.303 17.240,12.547 17.075,12.684 16.780 C 12.752 16.633,12.758 16.493,12.758 15.000 C 12.758 13.507,12.752 13.367,12.684 13.220 C 12.598 13.034,12.427 12.863,12.267 12.803 C 12.114 12.745,11.846 12.752,11.700 12.817 M14.700 12.817 C 14.530 12.893,14.403 13.026,14.316 13.216 C 14.247 13.367,14.242 13.505,14.242 15.000 C 14.242 16.493,14.248 16.633,14.316 16.780 C 14.453 17.075,14.697 17.240,15.000 17.240 C 15.303 17.240,15.547 17.075,15.684 16.780 C 15.752 16.633,15.758 16.493,15.758 15.000 C 15.758 13.507,15.752 13.367,15.684 13.220 C 15.598 13.034,15.427 12.863,15.267 12.803 C 15.114 12.745,14.846 12.752,14.700 12.817 " stroke="none" fill-rule="evenodd" fill="currentColor"/></svg>
